icon-themes/sifr_svg/cmd/lc_presentationlayout.svg

<svg viewBox="0 0 24 24" xmlns="http://www.w3.org/2000/svg"><path d="m1 2v3h2v4.0214844l2 1.1816406v-5.203125h14v11h-4.189453l3.384765 2h2.804688v-13h2v-3zm6 4v2h10v-2zm-6 3v14h22v-1zm6 0v2.384766l1 .589843v-1.974609h1v2.566406l1 .589844v-4.15625zm5 0v5h5v-5zm1 1h3v3h-3zm-9 5 9 5h-9z" fill="#555753"/></svg>

<svg xmlns="http://www.w3.org/2000/svg" viewBox="0 0 24 24">
  <path
     style="fill:#555753"
     d="M 1 2 L 1 5 L 3 5 L 3 9.0214844 L 5 10.203125 L 5 5 L 19 5 L 19 16 L 14.810547 16 L 18.195312 18 L 21 18 L 21 5 L 23 5 L 23 2 L 1 2 z M 7 6 L 7 8 L 17 8 L 17 6 L 7 6 z M 1 9 L 1 23 L 23 23 L 23 22 L 1 9 z M 7 9 L 7 11.384766 L 8 11.974609 L 8 10 L 9 10 L 9 12.566406 L 10 13.15625 L 10 9 L 7 9 z M 12 9 L 12 14 L 17 14 L 17 9 L 12 9 z M 13 10 L 16 10 L 16 13 L 13 13 L 13 10 z M 4 15 L 13 20 L 4 20 L 4 15 z "
     />
</svg>
